src/assets/icons/filters/categories/farming_stroke.svg

<svg width="48" height="47" viewBox="0 0 48 47" fill="none" xmlns="http://www.w3.org/2000/svg">
<path fill-rule="evenodd" clip-rule="evenodd" d="M30.4798 33.6425C28.1909 33.8007 25.8952 33.4543 23.7549 32.6278C21.6145 31.8014 19.6817 30.515 18.0931 28.8597L19.0112 27.8145C21.8746 29.6804 25.2705 30.5565 28.6791 30.3089C37.2198 29.702 43.6671 22.3457 43.0509 13.9119C42.9417 12.4229 42.6109 10.9585 42.0692 9.56723C43.6849 11.8211 44.6476 14.4768 44.8516 17.2424C45.4663 25.6778 39.0205 33.0355 30.4798 33.6425V33.6425ZM5.83014 42.8521C5.55918 43.1617 5.18293 43.3475 4.76952 43.3785C4.56627 43.396 4.36158 43.3721 4.16783 43.3083C3.97408 43.2444 3.79531 43.1419 3.64232 43.0069H3.64077C3.48685 42.8764 3.36049 42.7165 3.26912 42.5366C3.17774 42.3566 3.12317 42.1603 3.10861 41.959C3.09405 41.7577 3.11978 41.5556 3.18431 41.3644C3.24883 41.1731 3.35085 40.9967 3.48439 40.8454L9.58179 33.8871L11.9291 35.8953L5.83169 42.8521H5.83014ZM47.9514 17.021C47.2856 7.93837 39.8489 0.623966 30.6486 0.00307858C30.2603 -0.0213283 29.8768 0.100054 29.5733 0.343471C29.2697 0.586887 29.0679 0.934818 29.0074 1.31918C28.9544 1.70467 29.0496 2.0959 29.2737 2.41399C29.4978 2.73208 29.8342 2.95335 30.2151 3.0332C35.5569 4.18207 39.5625 8.7466 39.9542 14.1318C40.4481 20.8795 35.2906 26.7663 28.4577 27.2509C25.5432 27.4608 22.6475 26.6405 20.2762 24.933C20.1598 24.7066 19.99 24.512 19.7814 24.3661C19.5728 24.2202 19.3317 24.1273 19.0792 24.0956C18.8266 24.0639 18.5701 24.0942 18.3319 24.1841C18.0936 24.2739 17.8809 24.4204 17.7122 24.611L11.6148 31.5677L10.4411 30.5659C10.1287 30.299 9.72385 30.1656 9.31395 30.1946C8.90406 30.2236 8.52199 30.4126 8.25021 30.7208L1.13709 38.8388C0.735571 39.2921 0.429176 39.8214 0.236081 40.3954C0.042986 40.9694 -0.0328766 41.5763 0.0129935 42.1801C0.056443 42.7845 0.220167 43.3741 0.494559 43.9144C0.768951 44.4547 1.14848 44.9347 1.61089 45.3263C2.0741 45.7248 2.61131 46.0282 3.19181 46.2189C3.77232 46.4097 4.38473 46.4841 4.99403 46.4381C5.60335 46.3972 6.19865 46.2366 6.74593 45.9657C7.2932 45.6947 7.78174 45.3185 8.18363 44.8587L15.2967 36.7407C15.4295 36.589 15.5308 36.4123 15.5947 36.2211C15.6586 36.0298 15.6839 35.8277 15.6691 35.6266C15.6542 35.4255 15.5996 35.2294 15.5083 35.0496C15.417 34.8698 15.2909 34.7099 15.1373 34.5793L13.9636 33.5759L16.0477 31.1977C17.9496 33.1173 20.2441 34.603 22.7739 35.5528C25.3037 36.5026 28.009 36.8941 30.7044 36.7005C40.9529 35.9728 48.6884 27.1441 47.9514 17.021V17.021Z" fill="black"/>
</svg>

<svg width="48" height="47" viewBox="0 0 48 47" fill="none" xmlns="http://www.w3.org/2000/svg"><path fill-rule="evenodd" clip-rule="evenodd" d="M30.48 33.642a15.669 15.669 0 01-12.387-4.782l.918-1.046a15.634 15.634 0 009.668 2.495c8.54-.607 14.988-7.963 14.372-16.397a14.998 14.998 0 00-.982-4.345 15.077 15.077 0 012.783 7.675c.614 8.436-5.831 15.793-14.372 16.4zm-24.65 9.21c-.27.31-.647.495-1.06.527a1.51 1.51 0 01-1.128-.372h-.001a1.518 1.518 0 01-.157-2.162l6.098-6.958 2.347 2.008-6.097 6.957H5.83zm42.121-25.831C47.286 7.938 39.85.624 30.65.003a1.562 1.562 0 00-1.642 1.316 1.537 1.537 0 001.208 1.714c5.342 1.15 9.348 5.714 9.74 11.099.493 6.748-4.664 12.634-11.497 13.119-2.915.21-5.81-.61-8.182-2.318a1.565 1.565 0 00-2.564-.322l-6.097 6.957-1.174-1.002a1.565 1.565 0 00-2.19.155l-7.114 8.118A4.522 4.522 0 00.013 42.18a4.55 4.55 0 001.598 3.146 4.65 4.65 0 003.383 1.112 4.651 4.651 0 003.19-1.58l7.113-8.117a1.52 1.52 0 00-.16-2.162l-1.173-1.003 2.084-2.378A18.742 18.742 0 0030.704 36.7c10.249-.727 17.984-9.556 17.247-19.679z" fill="#000"/></svg>
